X:115
U: ~ = !turn!
%%topmargin 3cm
T:Little Thatched Cabin
B:Traditional Irish Fiddle Tunes. Randy Miller and Jack Perron.
Z:Transcribed by Ralph Palmer
R:Jig
M:6/8
L:1/8
K:D
A | FDA, DFB | AFD EDB, | DFA def | gfg eag |
fdB AFD | EDB, DFA | dcd eag | fdd d2 ::
f/2g/2 | afa geg | fdf ecA | dcd fed cAc efg |
afa geg | fdf ecA | [1 dcd eag | fdd d2 :| [2 dcd AFD | EDC D2 |]
